!!!SOCIAL_FUNCTION:	songs connected with rare medicines
!!!PDT:	1909
!!!OTL: No_88_Song_of_the_Owl_Medicine.krn
!!!REG: Great_Lakes
!!!LANG: Non-Tone
!!!LING_GROUP: Algonquin
**kern	**kern
*staff2	*staff1
*clefF4	*clefF4
*k[]	*k[]
*M2/4	*M2/4
8r	8B\
=1	=1
8GG/L	8B\L
8GG/J	8B\J
8GG/L	8B\L
8GG/J	8A\J
=2	=2
8GG/L	(8A\L
8GG/J	8E\J)
8GG/L	8E\L
8GG/J	8E\J
=3	=3
2r	4.F\
.	8F\
=4	=4
2r	8F\L
.	8F\J
.	8F\L
.	8E\J
=5	=5
2r	(8E/L
.	8C/J)
.	8C/L
.	8C/J
=6	=6
2r	4.C/
.	8C/
=7	=7
2r	8C/L
.	8E/J
.	8E\L
.	8E\J
=8	=8
2r	(8E/L
.	8C/J)
.	8E\L
.	8E\J
=9	=9
2r	4.E\
.	8E\
=10	=10
2r	8E\L
.	8E\J
.	8E\L
.	8E\J
=11	=11
2r	4E\
.	8E\L
.	8E\J
=12	=12
2r	4E\
.	8A\L
.	8A\J
=13	=13
2r	8E\L
.	8E\J
.	8F\L
.	8F\J
=14	=14
2r	4F\
.	8F\L
.	8F\J
=15	=15
2r	4.F\
.	8F\
=16	=16
2r	8F\L
.	8F\J
.	8F\L
.	8E\J
=17	=17
2r	(8E/L
.	8C/J)
.	8C/L
.	8C/J
=18	=18
2r	4.C/
.	8C/
=19	=19
2r	8C/L
.	8E/J
.	8E\L
.	8E\J
=20	=20
2r	(8E/L
.	8C/J)
.	8E\L
.	8E\J
=21	=21
2r	4.E\
.	8E\
=22	=22
2r	8E\L
.	8E\J
.	8E\L
.	8E\J
=23	=23
2r	4E\
.	8E\L
.	8E\J
=24	=24
2r	4.E\
.	8r
*-	*-
